X:1
T:Two Sisters
M:6/8
L:1/8
K:C
 D| GGG GAB| A2 ^F D3| A3 D2 D| GGG GAB| A2 ^F D3| c2 c ABc| d3 z2 B|\
 ddd dcB| c2 c c2 A| B2 B B2 G| AA^F D3| DE^F G3| ABc d3| ABc BAG|\
 A2 A G3|

